svg/palette.svg

<svg xmlns="http://www.w3.org/2000/svg" viewBox="0 0 24 24"><path d="M17.5 12a1.5 1.5 0 0 1-1.5-1.5A1.5 1.5 0 0 1 17.5 9a1.5 1.5 0 0 1 1.5 1.5 1.5 1.5 0 0 1-1.5 1.5m-3-4A1.5 1.5 0 0 1 13 6.5 1.5 1.5 0 0 1 14.5 5 1.5 1.5 0 0 1 16 6.5 1.5 1.5 0 0 1 14.5 8m-5 0A1.5 1.5 0 0 1 8 6.5 1.5 1.5 0 0 1 9.5 5 1.5 1.5 0 0 1 11 6.5 1.5 1.5 0 0 1 9.5 8m-3 4A1.5 1.5 0 0 1 5 10.5 1.5 1.5 0 0 1 6.5 9 1.5 1.5 0 0 1 8 10.5 1.5 1.5 0 0 1 6.5 12M12 3a9 9 0 0 0-9 9 9 9 0 0 0 9 9 1.5 1.5 0 0 0 1.5-1.5c0-.39-.15-.74-.39-1-.23-.27-.38-.62-.38-1a1.5 1.5 0 0 1 1.5-1.5H16a5 5 0 0 0 5-5c0-4.42-4.03-8-9-8"/></svg>

<?xml version="1.0" encoding="UTF-8"?><!DOCTYPE svg PUBLIC "-//W3C//DTD SVG 1.1//EN" "http://www.w3.org/Graphics/SVG/1.1/DTD/svg11.dtd"><svg xmlns="http://www.w3.org/2000/svg" xmlns:xlink="http://www.w3.org/1999/xlink" version="1.1" id="mdi-palette" width="24" height="24" viewBox="0 0 24 24"><path d="M17.5,12A1.5,1.5 0 0,1 16,10.5A1.5,1.5 0 0,1 17.5,9A1.5,1.5 0 0,1 19,10.5A1.5,1.5 0 0,1 17.5,12M14.5,8A1.5,1.5 0 0,1 13,6.5A1.5,1.5 0 0,1 14.5,5A1.5,1.5 0 0,1 16,6.5A1.5,1.5 0 0,1 14.5,8M9.5,8A1.5,1.5 0 0,1 8,6.5A1.5,1.5 0 0,1 9.5,5A1.5,1.5 0 0,1 11,6.5A1.5,1.5 0 0,1 9.5,8M6.5,12A1.5,1.5 0 0,1 5,10.5A1.5,1.5 0 0,1 6.5,9A1.5,1.5 0 0,1 8,10.5A1.5,1.5 0 0,1 6.5,12M12,3A9,9 0 0,0 3,12A9,9 0 0,0 12,21A1.5,1.5 0 0,0 13.5,19.5C13.5,19.11 13.35,18.76 13.11,18.5C12.88,18.23 12.73,17.88 12.73,17.5A1.5,1.5 0 0,1 14.23,16H16A5,5 0 0,0 21,11C21,6.58 16.97,3 12,3Z" /></svg>
